ngpc/_inc/system.svg

<svg xmlns="http://www.w3.org/2000/svg"><g fill="#fff"><path d="m35.961 115.284-.072-44.013h5.7v52.701h-5.7l-30.333-44.37.141 44.37h-5.697v-52.701h5.982z"/><path d="m47.952 71.271h27.96v5.199h-22.119v18.303h21.978v5.199h-21.978v18.801h22.119v5.199h-27.96z"/><path d="m78.573 97.764c0-16.236 12.606-27.42 27.492-27.42 15.453 0 27.489 11.823 27.489 27.276 0 15.456-11.964 27.279-27.489 27.279-15.597 0-27.492-12.039-27.492-27.066zm5.91-.144c0 12.393 9.33 22.08 21.651 22.08 12.465 0 21.582-10.041 21.582-22.08 0-12.036-9.117-22.077-21.651-22.077-12.393 0-21.582 9.828-21.582 22.005z"/><path d="m182.202 84.945c-1.638-2.28-3.633-4.203-5.91-5.697-3.42-2.352-7.551-3.705-12.249-3.705-11.538 0-21.579 8.832-21.579 22.005 0 13.389 10.113 22.221 21.648 22.221 5.556 0 10.47-1.92 14.103-4.77 3.705-2.922 6.267-6.909 7.122-11.043h-28.686v-4.842h35.523c-.072 3.063-.783 6.909-2.352 10.185-4.557 9.9-15.099 15.669-25.71 15.669-15.381 0-27.561-11.823-27.561-27.42 0-15.81 12.393-27.207 27.633-27.207 10.683 0 20.583 5.985 24.714 14.601h-6.696z"/><path d="m195 71.271h29.199v5.199h-23.358v18.303h23.214v5.199h-23.214v18.801h23.358v5.199h-29.199z"/><path d="m226.548 97.764c0-16.236 12.606-27.42 27.492-27.42 15.453 0 27.489 11.823 27.489 27.276 0 15.456-11.964 27.279-27.489 27.279-15.597 0-27.492-12.039-27.492-27.066zm5.913-.144c0 12.393 9.327 22.08 21.648 22.08 12.465 0 21.579-10.041 21.579-22.08 0-12.036-9.114-22.077-21.648-22.077-12.393 0-21.579 9.828-21.579 22.005z"/><path d="m346.569 97.764c0-16.236 12.606-27.42 27.492-27.42 15.456 0 27.492 11.823 27.492 27.276 0 15.456-11.964 27.279-27.492 27.279-15.597 0-27.492-12.039-27.492-27.066zm5.91-.144c0 12.393 9.33 22.08 21.654 22.08 12.462 0 21.579-10.041 21.579-22.08 0-12.036-9.114-22.077-21.651-22.077-12.39 0-21.582 9.828-21.582 22.005z"/><path d="m460.377 109.8c-3.417 8.121-12.603 15.102-24.213 15.102-15.597 0-27.492-12.039-27.492-27.276 0-15.03 11.61-27.279 27.417-27.279 13.032 0 21.225 8.691 24.285 15.384h-6.339c-1.782-3.132-7.761-10.185-17.946-10.185-12.321 0-21.579 9.756-21.579 22.005 0 12.465 9.327 22.152 21.579 22.152 11.043 0 16.665-7.908 17.946-9.9z"/><path d="m518.208 71.271h29.202v5.199h-23.358v18.303h23.214v5.199h-23.214v18.801h23.358v5.199h-29.202z"/><path d="m577.035 76.47h-16.983v-5.199h39.948v5.199h-17.052v47.502h-5.913z"/><path d="m226.743 164.583c-2.172 7.389-9.129 12.654-17.484 12.654-10.917 0-18.741-8.646-18.741-18.594 0-9.513 7.389-18.498 18.693-18.498 10.287.051 16.131 7.632 17.532 12.849h-7.584c-1.11-2.463-4.296-6.471-9.996-6.519-6.957 0-11.448 5.841-11.448 12.171 0 6.519 4.686 12.27 11.496 12.27 6.375 0 9.273-5.025 9.948-6.33z"/><path d="m246.015 158.979c0-11.445 8.79-18.837 18.741-18.837 10.818 0 18.789 8.403 18.789 18.546s-7.923 18.546-18.837 18.546c-10.965 0-18.693-8.646-18.693-18.207zm7.197-.288c0 6.522 4.686 12.219 11.64 12.219 7.248 0 11.496-6.279 11.496-12.171 0-5.988-4.248-12.27-11.544-12.27-7.149 0-11.592 5.892-11.592 12.174z"/><path d="m304.797 140.82h7.197v29.415h11.736v6.327h-18.933z"/><path d="m341.427 158.979c0-11.445 8.79-18.837 18.738-18.837 10.821 0 18.792 8.403 18.792 18.546s-7.923 18.546-18.84 18.546c-10.962 0-18.69-8.646-18.69-18.207zm7.197-.288c0 6.522 4.686 12.219 11.637 12.219 7.248 0 11.496-6.279 11.496-12.171 0-5.988-4.251-12.27-11.541-12.27-7.149 0-11.592 5.892-11.592 12.174z"/><path d="m503.319 123.972h7.335l-27.381-26.424 25.17-26.28h-6.408l-27.627 28.575v-6.771-21.801h-5.841v52.701h5.841v-17.175l5.376-5.616z"/><path d="m408.315 140.82c4.02.102 7.572.309 10.77 2.988.822.672 1.599 1.545 2.163 2.421 1.65 2.529 1.803 5.358 1.803 6.339 0 .873-.102 3.297-1.44 5.514-.363.564-.825 1.338-1.908 2.316-1.185 1.032-2.421 1.596-2.886 1.803-.876.36-1.752.618-3.657 1.032l10.512 13.962h-8.091l-10.101-13.758v13.758h-7.263v-36.378zm-2.835 17.262h3.609c.411 0 .771 0 1.185-.051.771 0 3.348-.105 5.049-2.163.411-.519 1.134-1.599 1.134-3.351 0-.567-.051-1.959-.981-3.243-1.599-2.166-4.071-2.373-6.546-2.424h-3.453v11.232z"/><path d="m320.457 128.001c-11.469-22.812-22.908-45.561-34.353-68.328.063-.045.114-.09.171-.117 2.856-1.461 5.712-2.922 8.565-4.38 4.032-2.058 8.07-4.11 12.099-6.18 4.236-2.175 8.688-3.483 13.494-3.33 3.273.108 6.27 1.059 8.904 3.066 2.322 1.77 3.963 4.071 5.223 6.672 1.194 2.469 2.046 5.037 2.094 7.809.069 3.846-1.095 7.326-3.159 10.557-1.38 2.163-2.958 4.152-4.809 5.91-1.275 1.215-2.637 2.334-3.957 3.492-4.836-3.429-9.567-6.783-14.319-10.152.903-3.294 1.791-6.561 2.685-9.834h13.695c0-3.468 0-6.906 0-10.395-7.071.069-14.064.135-21.057.204-2.547 7.197-5.082 14.358-7.62 21.528 8.187 6.771 16.344 13.521 24.51 20.274 3.246-1.236 6.324-2.76 9.222-4.641 4.617-3 8.466-6.771 11.292-11.517 2.628-4.41 3.948-9.216 4.02-14.349.042-3.18-.438-6.291-1.374-9.339-1.242-4.038-3.162-7.692-6.093-10.758-5.49-5.748-12.225-8.838-20.193-9.123-4.71-.168-9.165.897-13.368 3.009-1.893.951-3.747 1.98-5.652 2.904-4.245 2.052-8.511 4.059-12.768 6.081-3.753 1.785-7.509 3.564-11.262 5.343-1.269.603-2.538 1.206-3.81 1.809 12.75 25.995 25.482 51.957 38.211 77.922 3.225-1.389 6.387-2.751 9.609-4.137z"/><path d="m320.457 128.001c-3.225 1.386-6.384 2.748-9.615 4.137-12.726-25.962-25.461-51.927-38.211-77.919 1.272-.606 2.541-1.209 3.81-1.812 3.756-1.779 7.509-3.558 11.265-5.34 4.254-2.022 8.52-4.032 12.765-6.084 1.905-.924 3.759-1.953 5.652-2.904 4.203-2.112 8.658-3.174 13.368-3.009 7.968.285 14.703 3.375 20.196 9.126 2.928 3.063 4.848 6.717 6.09 10.758.936 3.045 1.419 6.156 1.374 9.336-.072 5.133-1.389 9.939-4.017 14.352-2.829 4.743-6.678 8.514-11.298 11.514-2.895 1.881-5.973 3.405-9.219 4.641-8.163-6.753-16.323-13.5-24.51-20.271 2.538-7.173 5.073-14.331 7.62-21.531 6.993-.069 13.989-.135 21.06-.204v10.398c-4.53 0-9.081 0-13.695 0-.897 3.273-1.788 6.537-2.688 9.831 4.752 3.369 9.483 6.723 14.319 10.155 1.323-1.161 2.685-2.28 3.957-3.492 1.851-1.761 3.429-3.75 4.809-5.91 2.064-3.231 3.228-6.711 3.162-10.56-.051-2.769-.903-5.34-2.097-7.806-1.257-2.601-2.901-4.902-5.223-6.675-2.631-2.007-5.631-2.958-8.901-3.063-4.806-.156-9.261 1.152-13.497 3.33-4.026 2.07-8.064 4.119-12.099 6.177-2.856 1.461-5.709 2.919-8.562 4.38-.06.03-.111.075-.174.117 11.451 22.767 22.89 45.516 34.359 68.328z"/><path d="m328.548 28.074c-2.286-.471-4.512-.93-6.798-1.401 1.332-8.886 2.661-17.769 3.996-26.673 4.164.606 8.289 1.212 12.477 1.824-3.231 8.772-6.447 17.493-9.675 26.25z"/><path d="m365.697 20.826c2.211 3.579 4.389 7.113 6.606 10.704-7.218 4.467-14.433 8.931-21.666 13.41-1.518-2.265-3.006-4.488-4.53-6.765 6.525-5.778 13.038-11.544 19.59-17.349z"/><path d="m348.267 6.861c3.192 2.205 6.327 4.374 9.474 6.549-5.688 6.786-11.364 13.554-17.076 20.364-1.998-1.233-3.978-2.457-6.015-3.714 4.521-7.698 9.048-15.417 13.617-23.199z"/></g></svg>

<?xml version="1.0" encoding="utf-8"?>
<svg version="1.1" xmlns="http://www.w3.org/2000/svg">
  <g>
    <path d="M 35.961 115.284 L 35.889 71.271 L 41.589 71.271 L 41.589 123.972 L 35.889 123.972 L 5.556 79.602 L 5.697 123.972 L 0 123.972 L 0 71.271 L 5.982 71.271 L 35.961 115.284 Z" id="path7" style="fill-opacity: 1; fill: rgb(255, 255, 255);"/>
    <path d="M 47.952 71.271 L 75.912 71.271 L 75.912 76.47 L 53.793 76.47 L 53.793 94.773 L 75.771 94.773 L 75.771 99.972 L 53.793 99.972 L 53.793 118.773 L 75.912 118.773 L 75.912 123.972 L 47.952 123.972 L 47.952 71.271 Z" id="path9" style="fill-opacity: 1; fill: rgb(255, 255, 255);"/>
    <path d="M 78.573 97.764 C 78.573 81.528 91.179 70.344 106.065 70.344 C 121.518 70.344 133.554 82.167 133.554 97.62 C 133.554 113.076 121.59 124.899 106.065 124.899 C 90.468 124.899 78.573 112.86 78.573 97.833 L 78.573 97.764 Z M 84.483 97.62 C 84.483 110.013 93.813 119.7 106.134 119.7 C 118.599 119.7 127.716 109.659 127.716 97.62 C 127.716 85.584 118.599 75.543 106.065 75.543 C 93.672 75.543 84.483 85.371 84.483 97.548 L 84.483 97.62 Z" id="path11" style="fill-opacity: 1; fill: rgb(255, 255, 255);"/>
    <path d="M 182.202 84.945 C 180.564 82.665 178.569 80.742 176.292 79.248 C 172.872 76.896 168.741 75.543 164.043 75.543 C 152.505 75.543 142.464 84.375 142.464 97.548 C 142.464 110.937 152.577 119.769 164.112 119.769 C 169.668 119.769 174.582 117.849 178.215 114.999 C 181.92 112.077 184.482 108.09 185.337 103.956 L 156.651 103.956 L 156.651 99.114 L 192.174 99.114 C 192.102 102.177 191.391 106.023 189.822 109.299 C 185.265 119.199 174.723 124.968 164.112 124.968 C 148.731 124.968 136.551 113.145 136.551 97.548 C 136.551 81.738 148.944 70.341 164.184 70.341 C 174.867 70.341 184.767 76.326 188.898 84.942 L 182.202 84.942 L 182.202 84.945 L 182.202 84.945 Z" id="path13" style="fill-opacity: 1; fill: rgb(255, 255, 255);"/>
    <path d="M 195 71.271 L 224.199 71.271 L 224.199 76.47 L 200.841 76.47 L 200.841 94.773 L 224.055 94.773 L 224.055 99.972 L 200.841 99.972 L 200.841 118.773 L 224.199 118.773 L 224.199 123.972 L 195 123.972 L 195 71.271 Z" id="path15" style="fill-opacity: 1; fill: rgb(255, 255, 255);"/>
    <path d="M 226.548 97.764 C 226.548 81.528 239.154 70.344 254.04 70.344 C 269.493 70.344 281.529 82.167 281.529 97.62 C 281.529 113.076 269.565 124.899 254.04 124.899 C 238.443 124.899 226.548 112.86 226.548 97.833 L 226.548 97.764 Z M 232.461 97.62 C 232.461 110.013 241.788 119.7 254.109 119.7 C 266.574 119.7 275.688 109.659 275.688 97.62 C 275.688 85.584 266.574 75.543 254.04 75.543 C 241.647 75.543 232.461 85.371 232.461 97.548 L 232.461 97.62 L 232.461 97.62 Z" id="path17" style="fill-opacity: 1; fill: rgb(255, 255, 255);"/>
    <path d="M 346.569 97.764 C 346.569 81.528 359.175 70.344 374.061 70.344 C 389.517 70.344 401.553 82.167 401.553 97.62 C 401.553 113.076 389.589 124.899 374.061 124.899 C 358.464 124.899 346.569 112.86 346.569 97.833 L 346.569 97.764 Z M 352.479 97.62 C 352.479 110.013 361.809 119.7 374.133 119.7 C 386.595 119.7 395.712 109.659 395.712 97.62 C 395.712 85.584 386.598 75.543 374.061 75.543 C 361.671 75.543 352.479 85.371 352.479 97.548 L 352.479 97.62 L 352.479 97.62 Z" id="path21" style="fill-opacity: 1; fill: rgb(255, 255, 255);"/>
    <path d="M 460.377 109.8 C 456.96 117.921 447.774 124.902 436.164 124.902 C 420.567 124.902 408.672 112.863 408.672 97.626 C 408.672 82.596 420.282 70.347 436.089 70.347 C 449.121 70.347 457.314 79.038 460.374 85.731 L 454.035 85.731 C 452.253 82.599 446.274 75.546 436.089 75.546 C 423.768 75.546 414.51 85.302 414.51 97.551 C 414.51 110.016 423.837 119.703 436.089 119.703 C 447.132 119.703 452.754 111.795 454.035 109.803 L 460.377 109.8 L 460.377 109.8 Z" id="path23" style="fill-opacity: 1; fill: rgb(255, 255, 255);"/>
    <path d="M 518.208 71.271 L 547.41 71.271 L 547.41 76.47 L 524.052 76.47 L 524.052 94.773 L 547.266 94.773 L 547.266 99.972 L 524.052 99.972 L 524.052 118.773 L 547.41 118.773 L 547.41 123.972 L 518.208 123.972 L 518.208 71.271 L 518.208 71.271 Z" id="path25" style="fill-opacity: 1; fill: rgb(255, 255, 255);"/>
    <path d="M 577.035 76.47 L 560.052 76.47 L 560.052 71.271 L 600 71.271 L 600 76.47 L 582.948 76.47 L 582.948 123.972 L 577.035 123.972 L 577.035 76.47 Z" id="path27" style="fill-opacity: 1; fill: rgb(255, 255, 255);"/>
    <path d="M 226.743 164.583 C 224.571 171.972 217.614 177.237 209.259 177.237 C 198.342 177.237 190.518 168.591 190.518 158.643 C 190.518 149.13 197.907 140.145 209.211 140.145 C 219.498 140.196 225.342 147.777 226.743 152.994 L 219.159 152.994 C 218.049 150.531 214.863 146.523 209.163 146.475 C 202.206 146.475 197.715 152.316 197.715 158.646 C 197.715 165.165 202.401 170.916 209.211 170.916 C 215.586 170.916 218.484 165.891 219.159 164.586 L 226.743 164.583 L 226.743 164.583 Z" id="path29" style="fill-opacity: 1; fill: rgb(255, 255, 255);"/>
    <path d="M 246.015 158.979 C 246.015 147.534 254.805 140.142 264.756 140.142 C 275.574 140.142 283.545 148.545 283.545 158.688 C 283.545 168.831 275.622 177.234 264.708 177.234 C 253.743 177.234 246.015 168.588 246.015 159.027 L 246.015 158.979 L 246.015 158.979 Z M 253.212 158.691 C 253.212 165.213 257.898 170.91 264.852 170.91 C 272.1 170.91 276.348 164.631 276.348 158.739 C 276.348 152.751 272.1 146.469 264.804 146.469 C 257.655 146.469 253.212 152.361 253.212 158.643 L 253.212 158.691 Z" id="path31" style="fill-opacity: 1; fill: rgb(255, 255, 255);"/>
    <path d="M 304.797 140.82 L 311.994 140.82 L 311.994 170.235 L 323.73 170.235 L 323.73 176.562 L 304.797 176.562 L 304.797 140.82 Z" id="path33" style="fill-opacity: 1; fill: rgb(255, 255, 255);"/>
    <path d="M 341.427 158.979 C 341.427 147.534 350.217 140.142 360.165 140.142 C 370.986 140.142 378.957 148.545 378.957 158.688 C 378.957 168.831 371.034 177.234 360.117 177.234 C 349.155 177.234 341.427 168.588 341.427 159.027 L 341.427 158.979 Z M 348.624 158.691 C 348.624 165.213 353.31 170.91 360.261 170.91 C 367.509 170.91 371.757 164.631 371.757 158.739 C 371.757 152.751 367.506 146.469 360.216 146.469 C 353.067 146.469 348.624 152.361 348.624 158.643 L 348.624 158.691 L 348.624 158.691 Z" id="path35" style="fill-opacity: 1; fill: rgb(255, 255, 255);"/>
    <path d="M 503.319 123.972 L 510.654 123.972 L 483.273 97.548 L 508.443 71.268 L 502.035 71.268 L 474.408 99.843 L 474.408 93.072 L 474.408 71.271 L 468.567 71.271 L 468.567 123.972 L 474.408 123.972 L 474.408 106.797 L 479.784 101.181 L 503.319 123.972 Z" id="path37" style="fill-opacity: 1; fill: rgb(255, 255, 255);"/>
    <path d="M 408.315 140.82 C 412.335 140.922 415.887 141.129 419.085 143.808 C 419.907 144.48 420.684 145.353 421.248 146.229 C 422.898 148.758 423.051 151.587 423.051 152.568 C 423.051 153.441 422.949 155.865 421.611 158.082 C 421.248 158.646 420.786 159.42 419.703 160.398 C 418.518 161.43 417.282 161.994 416.817 162.201 C 415.941 162.561 415.065 162.819 413.16 163.233 L 423.672 177.195 L 415.581 177.195 L 405.48 163.437 L 405.48 177.195 L 398.217 177.195 L 398.217 140.817 L 408.315 140.82 L 408.315 140.82 Z M 405.48 158.082 L 409.089 158.082 C 409.5 158.082 409.86 158.082 410.274 158.031 C 411.045 158.031 413.622 157.926 415.323 155.868 C 415.734 155.349 416.457 154.269 416.457 152.517 C 416.457 151.95 416.406 150.558 415.476 149.274 C 413.877 147.108 411.405 146.901 408.93 146.85 L 405.477 146.85 L 405.477 158.082 L 405.48 158.082 Z" id="path39" style="fill-opacity: 1; fill: rgb(255, 255, 255);"/>
    <path d="M 320.457 128.001 C 308.988 105.189 297.549 82.44 286.104 59.673 C 286.167 59.628 286.218 59.583 286.275 59.556 C 289.131 58.095 291.987 56.634 294.84 55.176 C 298.872 53.118 302.91 51.066 306.939 48.996 C 311.175 46.821 315.627 45.513 320.433 45.666 C 323.706 45.774 326.703 46.725 329.337 48.732 C 331.659 50.502 333.3 52.803 334.56 55.404 C 335.754 57.873 336.606 60.441 336.654 63.213 C 336.723 67.059 335.559 70.539 333.495 73.77 C 332.115 75.933 330.537 77.922 328.686 79.68 C 327.411 80.895 326.049 82.014 324.729 83.172 C 319.893 79.743 315.162 76.389 310.41 73.02 C 311.313 69.726 312.201 66.459 313.095 63.186 C 317.712 63.186 322.263 63.186 326.79 63.186 C 326.79 59.718 326.79 56.28 326.79 52.791 C 319.719 52.86 312.726 52.926 305.733 52.995 C 303.186 60.192 300.651 67.353 298.113 74.523 C 306.3 81.294 314.457 88.044 322.623 94.797 C 325.869 93.561 328.947 92.037 331.845 90.156 C 336.462 87.156 340.311 83.385 343.137 78.639 C 345.765 74.229 347.085 69.423 347.157 64.29 C 347.199 61.11 346.719 57.999 345.783 54.951 C 344.541 50.913 342.621 47.259 339.69 44.193 C 334.2 38.445 327.465 35.355 319.497 35.07 C 314.787 34.902 310.332 35.967 306.129 38.079 C 304.236 39.03 302.382 40.059 300.477 40.983 C 296.232 43.035 291.966 45.042 287.709 47.064 C 283.956 48.849 280.2 50.628 276.447 52.407 C 275.178 53.01 273.909 53.613 272.637 54.216 C 285.387 80.211 298.119 106.173 310.848 132.138 C 314.073 130.749 317.235 129.387 320.457 128.001 Z" id="path41" style="fill-opacity: 1; fill: rgb(255, 255, 255);"/>
    <path d="M 320.457 128.001 C 317.232 129.387 314.073 130.749 310.842 132.138 C 298.116 106.176 285.381 80.211 272.631 54.219 C 273.903 53.613 275.172 53.01 276.441 52.407 C 280.197 50.628 283.95 48.849 287.706 47.067 C 291.96 45.045 296.226 43.035 300.471 40.983 C 302.376 40.059 304.23 39.03 306.123 38.079 C 310.326 35.967 314.781 34.905 319.491 35.07 C 327.459 35.355 334.194 38.445 339.687 44.196 C 342.615 47.259 344.535 50.913 345.777 54.954 C 346.713 57.999 347.196 61.11 347.151 64.29 C 347.079 69.423 345.762 74.229 343.134 78.642 C 340.305 83.385 336.456 87.156 331.836 90.156 C 328.941 92.037 325.863 93.561 322.617 94.797 C 314.454 88.044 306.294 81.297 298.107 74.526 C 300.645 67.353 303.18 60.195 305.727 52.995 C 312.72 52.926 319.716 52.86 326.787 52.791 C 326.787 56.28 326.787 59.721 326.787 63.189 C 322.257 63.189 317.706 63.189 313.092 63.189 C 312.195 66.462 311.304 69.726 310.404 73.02 C 315.156 76.389 319.887 79.743 324.723 83.175 C 326.046 82.014 327.408 80.895 328.68 79.683 C 330.531 77.922 332.109 75.933 333.489 73.773 C 335.553 70.542 336.717 67.062 336.651 63.213 C 336.6 60.444 335.748 57.873 334.554 55.407 C 333.297 52.806 331.653 50.505 329.331 48.732 C 326.7 46.725 323.7 45.774 320.43 45.669 C 315.624 45.513 311.169 46.821 306.933 48.999 C 302.907 51.069 298.869 53.118 294.834 55.176 C 291.978 56.637 289.125 58.095 286.272 59.556 C 286.212 59.586 286.161 59.631 286.098 59.673 C 297.549 82.44 308.988 105.189 320.457 128.001 Z" id="path43" style="fill-opacity: 1; fill: rgb(255, 255, 255);"/>
    <path d="M 328.548 28.074 C 326.262 27.603 324.036 27.144 321.75 26.673 C 323.082 17.787 324.411 8.904 325.746 0 C 329.91 0.606 334.035 1.212 338.223 1.824 C 334.992 10.596 331.776 19.317 328.548 28.074 Z" id="path45" style="fill-opacity: 1; fill: rgb(255, 255, 255);"/>
    <path d="M 365.697 20.826 C 367.908 24.405 370.086 27.939 372.303 31.53 C 365.085 35.997 357.87 40.461 350.637 44.94 C 349.119 42.675 347.631 40.452 346.107 38.175 C 352.632 32.397 359.145 26.631 365.697 20.826 Z" id="path47" style="fill-opacity: 1; fill: rgb(255, 255, 255);"/>
    <path d="M 348.267 6.861 C 351.459 9.066 354.594 11.235 357.741 13.41 C 352.053 20.196 346.377 26.964 340.665 33.774 C 338.667 32.541 336.687 31.317 334.65 30.06 C 339.171 22.362 343.698 14.643 348.267 6.861 Z" id="path49" style="fill-opacity: 1; fill: rgb(255, 255, 255);"/>
  </g>
</svg>
